X:999
L:1/8
M:4/4
K:D
 f | (Bf)f^g{b} (ag)af | eAed cAAc | (Bf)f^g{b} (ag)af | ecac B/B/B B :| e | fBdB FBdB | 
 cAEA cAec | fBdB FBdB | cAec B/B/B (Be) | fBdB FBdB | cAEA cAec | Bdce dfe^g | afec B/B/B B ||

